app/dist/common/images/digitalx-ltd.svg

<svg height="18" viewBox="0 0 18 18" width="18" xmlns="http://www.w3.org/2000/svg"><path d="m0 0h18v18h-18z" fill="#181b1e"/><path d="m5.73 4-.73.77 2.39 2.53c.89.95 2.33.95 3.22 0l2.39-2.53-.73-.77-2.76 2.92a.7.7 0 0 1 -1.02 0zm8.27 8.27-.77.73-2.52-2.39a2.2 2.2 0 0 1 0-3.22l2.52-2.39.77.73-2.92 2.76a.7.7 0 0 0 0 1.02zm-10-6.54.77-.73 2.53 2.39c.95.89.95 2.33 0 3.22l-2.53 2.39-.77-.73 2.92-2.76a.7.7 0 0 0 0-1.02zm8.27 8.27.73-.77-2.39-2.52a2.2 2.2 0 0 0 -3.22 0l-2.39 2.52.73.77 2.76-2.92a.7.7 0 0 1 1.02 0z" fill="#fff"/></svg>

<!-- by TradingView --><svg width="18" height="18" viewBox="0 0 18 18" xmlns="http://www.w3.org/2000/svg"><path fill="#181B1E" d="M0 0h18v18H0z"/><path d="M5.73 4 5 4.77 7.39 7.3c.89.95 2.33.95 3.22 0L13 4.77 12.27 4 9.51 6.92a.7.7 0 0 1-1.02 0L5.73 4ZM14 12.27l-.77.73-2.52-2.39a2.2 2.2 0 0 1 0-3.22L13.23 5l.77.73-2.92 2.76a.7.7 0 0 0 0 1.02L14 12.27ZM4 5.73 4.77 5 7.3 7.39c.95.89.95 2.33 0 3.22L4.77 13 4 12.27l2.92-2.76a.7.7 0 0 0 0-1.02L4 5.73ZM12.27 14l.73-.77-2.39-2.52a2.2 2.2 0 0 0-3.22 0L5 13.23l.73.77 2.76-2.92a.7.7 0 0 1 1.02 0L12.27 14Z" fill="#fff"/></svg>
